X:1867
T:Pavane
T:(Newe lustige Volten... no. 5)
C:William Brade
B:Brade: "Newe lustige Volten, Couranten"\"a (1621) no. 5
R:Pavane
Z:Transcribed by Frank Nordberg - http://www.musicaviva.com
F:http://abc.musicaviva.com/tunes/brade-william/brade-pavane-05/brade-pavane-05-5m.abc
M:C|
L:1/8
Q:1/4=144
K:Dm
V:1
d2f2 e2d2 ^c2d2 e2d2 f2g2 a2gf ed^c2 d4:|
V:2
A2A2 A2A2 A2FG E2F3 dcB A2B3 A2E ^F4:|
V:3
F2D2 E2F2 E2D2 ^C2D2 D2E2 F2ED ^CDE2 D4:|
V:4
A,2A,2 A,2A,2 A,2F,2 A,2A,2 B,2B,2 C2G,3F, E,A, A,4:|
V:5
D,2D,2 ^C,2D,2 A,,2B,,2 A,,2D,2 B,,2G,,2 F,,2G,,2 A,,2A,,2 D,4 :|
%
V:1
|:defg a2a2 gabg a2f2 c'2b2 a2gf efge f4:|
V:2
|:A3G F2c2 B2B2 A2A2 A2BG cAd2 c3B A4:|
V:3
|:F3c A2GF EF2E F2F2 F2DE FcBA GAG2 F4:|
V:4
|:D3G, C2A,2 B,2B,2 C3B, A,2G,2 F,2F,2 C2C2 C4:|
V:5
|:D,3E, F,2F,2 G,2G,2 F,2F,2 F,,2G,,2 A,,2B,,2 C,2C,2 F,,4:|
%
V:1
|:defg a3g/f/ edef g3f/e/ dcde f3e/d/ ^cde^c d4:|
V:2
|:A3B cB cd c3d/c/ BA Bc B3c/B/ AG AB A3G ^F4:|
V:3
|:F4 E3D EF G3F/E/ DC DE F3E/D/ CG2 FE2 D4:|
V:4
|:D4 C3B,/A,/ G,3A, B,3A,/G,/ F,3G, A,3G,/F,/ E,D,A,2 A,4:|
V:5
|:D,4 A,,3B,, C,4 G,,3A,, B,,4 F,,3G,, A,,2A,,2 D,4:|
W:
W:
W:  From Musica Viva - http://www.musicaviva.com
W:  the Internet center for free sheet music downloads.
